src/assets/images/ic_status_clock.svg

<?xml version="1.0" encoding="UTF-8"?>
<svg width="14px" height="14px" viewBox="0 0 14 14" version="1.1" xmlns="http://www.w3.org/2000/svg" xmlns:xlink="http://www.w3.org/1999/xlink">
    <g id="Home" stroke="none" stroke-width="1" fill="none" fill-rule="evenodd">
        <path d="M4,3 C3.44771525,3 3,3.44771525 3,4 L3,9 C3,9.55228475 3.44771525,10 4,10 L9,10 C9.55228475,10 10,9.55228475 10,9 L10,4 C10,3.44771525 9.55228475,3 9,3 L4,3 Z M4,2 L9,2 C10.1045695,2 11,2.8954305 11,4 L11,9 C11,10.1045695 10.1045695,11 9,11 L4,11 C2.8954305,11 2,10.1045695 2,9 L2,4 C2,2.8954305 2.8954305,2 4,2 Z" fill="#92A58C" fill-rule="nonzero"></path>
        <path d="M6.51061172,4 L6.51061172,4 C6.22860866,4 6,4.22860866 6,4.51061172 L6,7.17431381 L8.09408611,8.87360877 C8.32593236,9.06174581 8.66366354,9.03912562 8.86834988,8.82175099 L8.86834988,8.82175099 C9.05074801,8.62804619 9.04158214,8.32315452 8.84787734,8.1407564 C8.8368267,8.1303508 8.82529046,8.12047327 8.81330723,8.11115688 L7.02122345,6.71789681 L7.02122345,4.51061172 C7.02122345,4.22860866 6.79261479,4 6.51061172,4 Z" fill="#92A58C" fill-rule="nonzero"></path>
    </g>
</svg>

<svg width="14" height="14" xmlns="http://www.w3.org/2000/svg"><g fill="#92A58C" fill-rule="nonzero"><path d="M4 3a1 1 0 00-1 1v5a1 1 0 001 1h5a1 1 0 001-1V4a1 1 0 00-1-1H4zm0-1h5a2 2 0 012 2v5a2 2 0 01-2 2H4a2 2 0 01-2-2V4a2 2 0 012-2z"/><path d="M6.51 4a.51.51 0 00-.51.51v2.664l2.094 1.7a.57.57 0 00.774-.052.482.482 0 00-.055-.71L7.021 6.717V4.51A.51.51 0 006.511 4z"/></g></svg>
